packages/axiom-materials/src/icon_svgs/brandwatch.svg

<?xml version="1.0" encoding="UTF-8"?>
<svg width="16px" height="16px" viewBox="0 0 16 16" version="1.1" xmlns="http://www.w3.org/2000/svg" xmlns:xlink="http://www.w3.org/1999/xlink">
    <title>favicon</title>
    <g id="favicon" stroke="none" stroke-width="1" fill="none" fill-rule="evenodd">
        <g id="Hex" transform="translate(1.000000, 0.000000)">
            <path d="M2.39124959e-14,4.85934812 L2.39124959e-14,9.06425846 L4.77760769,11.3820792 L9.66358077,6.0945757 L6.46013846,0.0910722549 C6.35683462,0.126906738 6.25614231,0.173223979 6.15965,0.230189496 L0.840376923,3.37082398 C0.320357692,3.67785846 2.39124959e-14,4.24527915 2.39124959e-14,4.85934812" id="Fill" fill="#57B7DD"></path>
            <polygon id="Fill" fill="#F99132" points="4.77761577 11.3820847 10.5382927 14.1768433 13.1525773 12.6332571 9.66356192 6.09458122"></polygon>
            <path d="M12.5261069,2.99676605 L7.84036077,0.230200531 C7.41686077,-0.0198684347 6.91334538,-0.0661305037 6.46012231,0.0910832894 L9.66356462,6.09458674 L12.5261069,2.99676605 Z" id="Fill" fill="#A98BBC"></path>
            <path d="M13.1525665,12.6332709 L13.1596473,12.6291054 C13.6796665,12.3220709 13.9999973,11.7546502 13.9999973,11.1406088 L13.9999973,4.85933984 C13.9999973,4.24529846 13.6796665,3.67785019 13.1596473,3.3708157 L12.5260935,2.99677432 L9.66357808,6.09459501 L13.1525665,12.6332709 Z" id="Fill" fill="#FF6D56"></path>
            <path d="M-2.82167452e-14,9.06425019 L-2.82167452e-14,11.1406088 C-2.82167452e-14,11.7546502 0.320357692,12.3220709 0.840376923,12.6291054 L2.64223077,13.6929674 L4.77760769,11.3820709 L-2.82167452e-14,9.06425019 Z" id="Fill" fill="#8AC539"></path>
            <path d="M2.64224154,13.6929674 L6.15966077,15.7697398 C6.67965308,16.0767467 7.32034154,16.0767467 7.84036077,15.7697398 L10.5382685,14.1768295 L4.77761846,11.3820709 L2.64224154,13.6929674 Z" id="Fill" fill="#FFBE0A"></path>
        </g>
    </g>
</svg>

<svg height="16" viewBox="0 0 16 16" width="16" xmlns="http://www.w3.org/2000/svg"><g fill="none" fill-rule="evenodd" transform="translate(1)"><path d="m0 4.85934812v4.20491034l4.77760769 2.31782074 4.88597308-5.2875035-3.20344231-6.00350345c-.10330384.03583449-.20399615.08215173-.30048846.13911725l-5.31927308 3.14063448c-.52001923.30703448-.84037692.87445517-.84037692 1.48852414" fill="#57b7dd"/><path d="m4.77761577 11.3820847 5.76067693 2.7947586 2.6142846-1.5435862-3.48901538-6.53867588z" fill="#f99132"/><path d="m12.5261069 2.99676605-4.68574613-2.76656552c-.4235-.25006896-.92701539-.29633103-1.38023846-.13911724l3.20344231 6.00350345z" fill="#a98bbc"/><path d="m13.1525665 12.6332709.0070808-.0041655c.5200192-.3070345.84035-.8744552.84035-1.4884966v-6.28126896c0-.61404138-.3203308-1.18148965-.84035-1.48852414l-.6335538-.37404138-2.86251542 3.09782069z" fill="#ff6d56"/><path d="m0 9.06425019v2.07635861c0 .6140414.32035769 1.1814621.84037692 1.4884966l1.80185385 1.063862 2.13537692-2.3108965z" fill="#8ac539"/><path d="m2.64224154 13.6929674 3.51741923 2.0767724c.51999231.3070069 1.16068077.3070069 1.6807 0l2.69790773-1.5929103-5.76065004-2.7947586z" fill="#ffbe0a"/></g></svg>
